X:53
T:Strayaway Child                                                                                   
M:6/8                                                                                               
L:1/8                                                                                               
K:Em                                                                                                
G2 A|:BEE GEE|B,EE G2 A|BEE BAG|FDF Adc|\                                                           
BEE GEE|B,EE G2 A|BdB B2 A| GEE E2 A:|                                                              
Bee BdB|dBG AGA|Bee BdB|dBG A2 A|\                                                                  
Bee BdB|dBG AGA|BcB B2 A|GEE E2 A||                                                                 
Bee BdB|dBG AGA|Bee BdB|dBG A2 f|\                                                                  
gfe dcB|AGA BGE|AGE DB,D|EFE E3 ||                                                                  
|: EAG EDE|G3 BAG|AGE DB,D|E3 E2 D|\                                                                
EAG EDE|G3 BAG|AGF DB,D|1 E3 E2 D:|2 E3 E2 B||                                                      
|:efe ded|cBA BGE|GAB d2 B|AGE D2 c|\                                                               
BAG EDE|GAB cBA|BAG EAG|1 E3 E2 B :|2 E3 E3 ||                                                      
|: Bee efg|fdf eBA|Bee efg|fdf e2 f|                                                                
gfe dcB|AGA BGE|AGE DB,D|1 EFE E3 :|2 EFE E2 B||                                                    
|: edB edB|AGA BGE|edB edB|AGA B3|\                                                                 
edB gfe|dcB AGA|BAG EAG|1 E3 E2 B :|2 E3 EGA||
